OJJO/img/footer/footer-tel.svg

<svg width="20" height="20" fill="none" xmlns="http://www.w3.org/2000/svg"><path d="M17.256 12.253c-.096-.667-.611-1.187-1.274-1.342-2.577-.604-3.223-2.088-3.332-3.734C12.193 7.092 11.38 7 10 7s-2.193.092-2.65.177c-.109 1.646-.755 3.13-3.332 3.734-.663.156-1.178.675-1.274 1.342l-.497 3.442C2.072 16.907 2.962 18 4.2 18h11.6c1.237 0 2.128-1.093 1.953-2.305l-.497-3.442zM10 15.492c-1.395 0-2.526-1.12-2.526-2.5s1.131-2.5 2.526-2.5c1.395 0 2.526 1.12 2.526 2.5s-1.132 2.5-2.526 2.5zM19.95 6c-.024-1.5-3.842-3.999-9.95-4C3.891 2.001.073 4.5.05 6 .027 7.5.071 9.452 2.585 9.127c2.941-.381 2.76-1.408 2.76-2.876C5.345 5.227 7.737 4.98 10 4.98c2.263 0 4.654.247 4.655 1.271 0 1.468-.181 2.495 2.76 2.876C19.928 9.452 19.973 7.5 19.95 6z" fill="#333"/></svg>

<svg width="20" height="20" viewBox="0 0 20 20" fill="none" xmlns="http://www.w3.org/2000/svg">
<path d="M17.256 12.253C17.16 11.586 16.645 11.066 15.982 10.911C13.405 10.307 12.759 8.823 12.65 7.177C12.193 7.092 11.38 7 10 7C8.62 7 7.807 7.092 7.35 7.177C7.241 8.823 6.595 10.307 4.018 10.911C3.355 11.067 2.84 11.586 2.744 12.253L2.247 15.695C2.072 16.907 2.962 18 4.2 18H15.8C17.037 18 17.928 16.907 17.753 15.695L17.256 12.253ZM10 15.492C8.605 15.492 7.474 14.372 7.474 12.992C7.474 11.612 8.605 10.492 10 10.492C11.395 10.492 12.526 11.612 12.526 12.992C12.526 14.372 11.394 15.492 10 15.492ZM19.95 6C19.926 4.5 16.108 2.001 10 2C3.891 2.001 0.073 4.5 0.05 6C0.027 7.5 0.0710001 9.452 2.585 9.127C5.526 8.746 5.345 7.719 5.345 6.251C5.345 5.227 7.737 4.98 10 4.98C12.263 4.98 14.654 5.227 14.655 6.251C14.655 7.719 14.474 8.746 17.415 9.127C19.928 9.452 19.973 7.5 19.95 6Z" fill="#333333"/>
</svg>
